Newaita-dark/actions/22/tool-spray.svg

<svg height="22" viewBox="0 0 22 22" width="22" xmlns="http://www.w3.org/2000/svg"><g fill="#e0e0e0"><path d="m11.824219 3.808594c-.503907 0-.910157.40625-.910157.910156v2.273438h6.367188v-2.273438c0-.503906-.40625-.910156-.910156-.910156zm0 0"/><path d="m3.410156 2.902344c.378906 0 .683594.304687.683594.679687 0 .378907-.304688.683594-.683594.683594-.375 0-.679687-.304687-.679687-.683594 0-.375.304687-.679687.679687-.679687zm0 0"/><path d="m5.683594 3.355469c.316406 0 .570312.253906.570312.570312 0 .3125-.253906.566407-.570312.566407-.3125 0-.566406-.253907-.566406-.566407 0-.316406.253906-.570312.566406-.570312zm0 0"/><path d="m9.097656 5.175781c.25 0 .453125.203125.453125.453125s-.203125.457032-.453125.457032c-.253906 0-.457031-.207032-.457031-.457032s.203125-.453125.457031-.453125zm0 0"/><path d="m5.683594 6.539062c.316406 0 .570312.253907.570312.570313 0 .3125-.253906.566406-.570312.566406-.3125 0-.566406-.253906-.566406-.566406 0-.316406.253906-.570313.566406-.570313zm0 0"/><path d="m3.410156 4.945312c.378906 0 .683594.308594.683594.683594 0 .378906-.304688.683594-.683594.683594-.375 0-.679687-.304688-.679687-.683594 0-.375.304687-.683594.679687-.683594zm0 0"/><path d="m3.410156 6.992188c.378906 0 .683594.308593.683594.683593 0 .378907-.304688.683594-.683594.683594-.375 0-.679687-.304687-.679687-.683594 0-.375.304687-.683593.679687-.683593zm0 0"/><path d="m7.503906 4.492188c.25 0 .453125.203124.453125.453124 0 .253907-.203125.457032-.453125.457032s-.453125-.203125-.453125-.457032c0-.25.203125-.453124.453125-.453124zm0 0"/><path d="m7.503906 5.855469c.25 0 .453125.203125.453125.457031 0 .25-.203125.453125-.453125.453125s-.453125-.203125-.453125-.453125c0-.253906.203125-.457031.453125-.457031zm0 0"/><path d="m10.003906 7.902344c-.503906 0-.90625.40625-.90625.910156v9.550781c0 .503907.402344.910157.90625.910157h8.1875c.503906 0 .910156-.40625.910156-.910157v-9.550781c0-.503906-.40625-.910156-.910156-.910156zm1.367188 1.820312h5.457031c.25 0 .453125.203125.453125.453125v6.824219c0 .25-.203125.453125-.453125.453125h-5.457031c-.253906 0-.457032-.203125-.457032-.453125v-6.824219c0-.25.203126-.453125.457032-.453125zm0 0"/><path d="m5.683594 4.945312c.316406 0 .570312.257813.570312.570313s-.253906.570313-.570312.570313c-.3125 0-.566406-.257813-.566406-.570313s.253906-.570313.566406-.570313zm0 0"/></g></svg>

<?xml version="1.0" encoding="UTF-8"?>
<svg xmlns="http://www.w3.org/2000/svg" xmlns:xlink="http://www.w3.org/1999/xlink" width="22px" height="22px" viewBox="0 0 22 22" version="1.1">
<g id="surface1">
<path style=" stroke:none;fill-rule:nonzero;fill:rgb(87.843138%,87.843138%,87.843138%);fill-opacity:1;" d="M 11.824219 3.808594 C 11.320312 3.808594 10.914062 4.214844 10.914062 4.71875 L 10.914062 6.992188 L 17.28125 6.992188 L 17.28125 4.71875 C 17.28125 4.214844 16.875 3.808594 16.371094 3.808594 Z M 11.824219 3.808594 "/>
<path style=" stroke:none;fill-rule:nonzero;fill:rgb(87.843138%,87.843138%,87.843138%);fill-opacity:1;" d="M 3.410156 2.902344 C 3.789062 2.902344 4.09375 3.207031 4.09375 3.582031 C 4.09375 3.960938 3.789062 4.265625 3.410156 4.265625 C 3.035156 4.265625 2.730469 3.960938 2.730469 3.582031 C 2.730469 3.207031 3.035156 2.902344 3.410156 2.902344 Z M 3.410156 2.902344 "/>
<path style=" stroke:none;fill-rule:nonzero;fill:rgb(87.843138%,87.843138%,87.843138%);fill-opacity:1;" d="M 5.683594 3.355469 C 6 3.355469 6.253906 3.609375 6.253906 3.925781 C 6.253906 4.238281 6 4.492188 5.683594 4.492188 C 5.371094 4.492188 5.117188 4.238281 5.117188 3.925781 C 5.117188 3.609375 5.371094 3.355469 5.683594 3.355469 Z M 5.683594 3.355469 "/>
<path style=" stroke:none;fill-rule:nonzero;fill:rgb(87.843138%,87.843138%,87.843138%);fill-opacity:1;" d="M 9.097656 5.175781 C 9.347656 5.175781 9.550781 5.378906 9.550781 5.628906 C 9.550781 5.878906 9.347656 6.085938 9.097656 6.085938 C 8.84375 6.085938 8.640625 5.878906 8.640625 5.628906 C 8.640625 5.378906 8.84375 5.175781 9.097656 5.175781 Z M 9.097656 5.175781 "/>
<path style=" stroke:none;fill-rule:nonzero;fill:rgb(87.843138%,87.843138%,87.843138%);fill-opacity:1;" d="M 5.683594 6.539062 C 6 6.539062 6.253906 6.792969 6.253906 7.109375 C 6.253906 7.421875 6 7.675781 5.683594 7.675781 C 5.371094 7.675781 5.117188 7.421875 5.117188 7.109375 C 5.117188 6.792969 5.371094 6.539062 5.683594 6.539062 Z M 5.683594 6.539062 "/>
<path style=" stroke:none;fill-rule:nonzero;fill:rgb(87.843138%,87.843138%,87.843138%);fill-opacity:1;" d="M 3.410156 4.945312 C 3.789062 4.945312 4.09375 5.253906 4.09375 5.628906 C 4.09375 6.007812 3.789062 6.3125 3.410156 6.3125 C 3.035156 6.3125 2.730469 6.007812 2.730469 5.628906 C 2.730469 5.253906 3.035156 4.945312 3.410156 4.945312 Z M 3.410156 4.945312 "/>
<path style=" stroke:none;fill-rule:nonzero;fill:rgb(87.843138%,87.843138%,87.843138%);fill-opacity:1;" d="M 3.410156 6.992188 C 3.789062 6.992188 4.09375 7.300781 4.09375 7.675781 C 4.09375 8.054688 3.789062 8.359375 3.410156 8.359375 C 3.035156 8.359375 2.730469 8.054688 2.730469 7.675781 C 2.730469 7.300781 3.035156 6.992188 3.410156 6.992188 Z M 3.410156 6.992188 "/>
<path style=" stroke:none;fill-rule:nonzero;fill:rgb(87.843138%,87.843138%,87.843138%);fill-opacity:1;" d="M 7.503906 4.492188 C 7.753906 4.492188 7.957031 4.695312 7.957031 4.945312 C 7.957031 5.199219 7.753906 5.402344 7.503906 5.402344 C 7.253906 5.402344 7.050781 5.199219 7.050781 4.945312 C 7.050781 4.695312 7.253906 4.492188 7.503906 4.492188 Z M 7.503906 4.492188 "/>
<path style=" stroke:none;fill-rule:nonzero;fill:rgb(87.843138%,87.843138%,87.843138%);fill-opacity:1;" d="M 7.503906 5.855469 C 7.753906 5.855469 7.957031 6.058594 7.957031 6.3125 C 7.957031 6.5625 7.753906 6.765625 7.503906 6.765625 C 7.253906 6.765625 7.050781 6.5625 7.050781 6.3125 C 7.050781 6.058594 7.253906 5.855469 7.503906 5.855469 Z M 7.503906 5.855469 "/>
<path style=" stroke:none;fill-rule:nonzero;fill:rgb(87.843138%,87.843138%,87.843138%);fill-opacity:1;" d="M 10.003906 7.902344 C 9.5 7.902344 9.097656 8.308594 9.097656 8.8125 L 9.097656 18.363281 C 9.097656 18.867188 9.5 19.273438 10.003906 19.273438 L 18.191406 19.273438 C 18.695312 19.273438 19.101562 18.867188 19.101562 18.363281 L 19.101562 8.8125 C 19.101562 8.308594 18.695312 7.902344 18.191406 7.902344 Z M 11.371094 9.722656 L 16.828125 9.722656 C 17.078125 9.722656 17.28125 9.925781 17.28125 10.175781 L 17.28125 17 C 17.28125 17.25 17.078125 17.453125 16.828125 17.453125 L 11.371094 17.453125 C 11.117188 17.453125 10.914062 17.25 10.914062 17 L 10.914062 10.175781 C 10.914062 9.925781 11.117188 9.722656 11.371094 9.722656 Z M 11.371094 9.722656 "/>
<path style=" stroke:none;fill-rule:nonzero;fill:rgb(87.843138%,87.843138%,87.843138%);fill-opacity:1;" d="M 5.683594 4.945312 C 6 4.945312 6.253906 5.203125 6.253906 5.515625 C 6.253906 5.828125 6 6.085938 5.683594 6.085938 C 5.371094 6.085938 5.117188 5.828125 5.117188 5.515625 C 5.117188 5.203125 5.371094 4.945312 5.683594 4.945312 Z M 5.683594 4.945312 "/>
</g>
</svg>
